packages/core/src/svgs/grin.svg

<svg width="24" height="24" viewBox="0 0 24 24" fill="none" xmlns="http://www.w3.org/2000/svg">
<g clip-path="url(#clip0_31_11088)">
<path d="M0 0H24V24H0V0Z" fill="url(#paint0_linear_31_11088)"/>
<path d="M12 18.8574C15.7871 18.8574 18.8571 15.7873 18.8571 12.0002C18.8571 8.21311 15.7871 5.14307 12 5.14307C8.21287 5.14307 5.14282 8.21311 5.14282 12.0002C5.14282 15.7873 8.21287 18.8574 12 18.8574Z" fill="#F8F24F"/>
<path d="M15.1629 9.29993C15.0043 8.93136 14.8543 8.20707 14.4429 8.04422C13.9157 7.83422 13.5857 9.20136 13.5129 9.54422H13.4314C13.3029 8.95279 13.1229 8.11707 12.4886 7.93279C12.1972 9.1885 12.7929 10.5471 13.3543 11.6399C13.9543 11.3485 14.2414 10.4314 14.2972 9.78422H14.3786L15.0086 11.7214C15.5143 11.5714 15.69 11.0571 15.8743 10.5899C16.2643 9.59136 16.5943 8.36136 16.3457 7.28564C15.5872 7.50422 15.36 8.61422 15.1629 9.29993ZM7.60716 11.8799C8.2843 11.5499 8.60573 10.5042 8.71287 9.78422H8.79002C8.87145 10.1314 9.08573 11.0271 9.50573 11.0828C10.0457 11.1556 10.3243 9.92993 10.3629 9.53993H10.4443C10.6157 10.1485 10.7957 10.9414 11.3872 11.2371C11.6014 10.2942 11.3443 9.29564 11.01 8.41279C10.9243 8.18993 10.7443 7.57707 10.44 7.57707C9.94287 7.57707 9.66002 8.92707 9.57859 9.29993H9.49716L8.87145 7.37136C7.76573 7.91136 7.16145 10.7914 7.61145 11.8842L7.60716 11.8799ZM6.42859 12.8485C7.25145 16.5214 11.04 18.6042 14.4557 17.0528C15.6986 16.4871 16.6843 15.4842 17.2543 14.2199C17.4 13.8942 17.6872 13.3028 17.52 12.8742C17.3529 12.4456 15.7286 13.1442 15.3214 13.3285C15.2934 13.3415 15.2689 13.3612 15.2502 13.3858C15.2315 13.4105 15.2192 13.4394 15.2143 13.4699C15.2014 13.5556 15.2272 13.6499 15.2829 13.7228C15.3343 13.7914 15.4157 13.8385 15.5057 13.8428L16.1914 13.8985C14.9529 16.3456 11.6143 17.4299 9.26145 15.4714C8.72287 15.0407 8.27681 14.5057 7.95002 13.8985C7.79573 13.5985 7.6543 13.2171 7.39287 13.0114C7.25569 12.9115 7.0972 12.8448 6.92988 12.8165C6.76256 12.7883 6.59097 12.7992 6.42859 12.8485Z" fill="black"/>
</g>
<defs>
<linearGradient id="paint0_linear_31_11088" x1="4.46571" y1="4.16143" x2="29.2071" y2="32.58" gradientUnits="userSpaceOnUse">
<stop stop-color="#1A1E21"/>
<stop offset="1" stop-color="#06060A"/>
</linearGradient>
<clipPath id="clip0_31_11088">
<rect width="24" height="24" fill="white"/>
</clipPath>
</defs>
</svg>

<svg xmlns="http://www.w3.org/2000/svg" width="24" height="24" fill="none" viewBox="0 0 24 24"><g clip-path="url(#a)"><path fill="url(#b)" d="M0 0h24v24H0z"/><path fill="#F8F24F" d="M12 18.857a6.857 6.857 0 1 0 0-13.714 6.857 6.857 0 0 0 0 13.714"/><path fill="#000" d="M15.163 9.3c-.159-.369-.309-1.093-.72-1.256-.527-.21-.857 1.157-.93 1.5h-.082c-.128-.591-.308-1.427-.942-1.611-.292 1.255.304 2.614.865 3.707.6-.292.887-1.209.943-1.856h.082l.63 1.937c.505-.15.681-.664.865-1.131.39-.999.72-2.229.472-3.304-.759.218-.986 1.328-1.183 2.014m-7.556 2.58c.677-.33.999-1.376 1.106-2.096h.077c.081.347.296 1.243.716 1.299.54.073.818-1.153.857-1.543h.081c.172.609.352 1.401.943 1.697.214-.943-.043-1.941-.377-2.824-.086-.223-.266-.836-.57-.836-.497 0-.78 1.35-.861 1.723h-.082L8.871 7.37c-1.105.54-1.71 3.42-1.26 4.513zm-1.178.968c.822 3.673 4.611 5.756 8.027 4.205a5.63 5.63 0 0 0 2.798-2.833c.146-.326.433-.917.266-1.346-.167-.428-1.791.27-2.199.454a.19.19 0 0 0-.107.142.34.34 0 0 0 .069.253.3.3 0 0 0 .223.12l.685.056c-1.238 2.447-4.577 3.53-6.93 1.572A5.1 5.1 0 0 1 7.95 13.9c-.154-.3-.296-.682-.557-.888a1.1 1.1 0 0 0-.964-.162"/></g><defs><linearGradient id="b" x1="4.466" x2="29.207" y1="4.161" y2="32.58" gradientUnits="userSpaceOnUse"><stop stop-color="#1A1E21"/><stop offset="1" stop-color="#06060A"/></linearGradient><clipPath id="a"><path fill="#fff" d="M0 0h24v24H0z"/></clipPath></defs></svg>
